static/fa/svgs/solid/temperature-half.svg

<svg xmlns="http://www.w3.org/2000/svg" viewBox="0 0 320 512"><!--! Font Awesome Free 6.1.1 by @fontawesome - https://fontawesome.com License - https://fontawesome.com/license/free (Icons: CC BY 4.0, Fonts: SIL OFL 1.1, Code: MIT License) Copyright 2022 Fonticons, Inc.--><path d="M176 322.9V208c0-8.75-7.25-16-16-16s-15.1 7.25-15.1 16l-.9 114.9c-18.62 6.625-32 24.25-32 45.13 0 26.5 21.5 48 48 48s48-21.5 48-48c0-20.93-13.4-38.53-32-45.13zm96-44.4V112C272 50.13 221.88 0 160.9 0S48 50.13 48 112v166.5C28.25 303.25 16 334 16 368c0 79.5 64.5 143.1 144 143.1S304 447.5 304 368c0-34-12.2-64.9-32-89.5zM160 448c-44.13 0-80-35.87-80-79.1 0-25.5 12.25-48.88 32-63.75v-192.3c0-26.5 21.5-48 48-48s48 21.5 48 48v192.3c19.75 14.75 32 38.25 32 63.75 0 43.2-35.9 79.1-80 79.1z"/></svg>

<svg xmlns="http://www.w3.org/2000/svg" viewBox="0 0 320 512"><!--! Font Awesome Free 6.1.1 by @fontawesome - https://fontawesome.com License - https://fontawesome.com/license/free (Icons: CC BY 4.0, Fonts: SIL OFL 1.1, Code: MIT License) Copyright 2022 Fonticons, Inc. --><path d="M176 322.9l.0002-114.9c0-8.75-7.25-16-16-16s-15.1 7.25-15.1 16L144 322.9c-18.62 6.625-32 24.25-32 45.13c0 26.5 21.5 48 48 48s48-21.5 48-48C208 347.1 194.6 329.5 176 322.9zM272 278.5V112c0-61.87-50.12-112-111.1-112S48 50.13 48 112v166.5c-19.75 24.75-32 55.5-32 89.5c0 79.5 64.5 143.1 144 143.1S304 447.5 304 368C304 334 291.8 303.1 272 278.5zM160 448c-44.13 0-80-35.87-80-79.1c0-25.5 12.25-48.88 32-63.75v-192.3c0-26.5 21.5-48 48-48s48 21.5 48 48v192.3c19.75 14.75 32 38.25 32 63.75C240 412.1 204.1 448 160 448z"/></svg>
